assets/icons/volume-high-24.svg

<svg width="24" height="24" viewBox="0 0 24 24" fill="none" xmlns="http://www.w3.org/2000/svg">
<path fill-rule="evenodd" clip-rule="evenodd" d="M11.3663 4.37324C12.6325 3.4348 14.3913 4.37396 14.3913 5.98853V18.0115C14.3913 19.626 12.6325 20.5652 11.3663 19.6268L6.93147 16.3398C6.60702 16.0993 6.21826 15.9701 5.81953 15.9701L3.86956 15.9701C2.28475 15.9701 1 14.637 1 12.9925L1 11.0075C1 9.36303 2.28475 8.02994 3.86956 8.02994H5.81953C6.21826 8.02994 6.60702 7.90067 6.93147 7.6602L11.3663 4.37324ZM12.4783 5.98853L8.0434 9.27548C7.3945 9.75643 6.61698 10.015 5.81953 10.015H3.86956C3.34129 10.015 2.91304 10.4593 2.91304 11.0075V12.9925C2.91304 13.5407 3.34129 13.985 3.86956 13.985L5.81953 13.985C6.61698 13.985 7.3945 14.2436 8.0434 14.7245L12.4783 18.0115L12.4783 5.98853Z" fill="#F2F2F2"/>
<path d="M16.33 4.99685C16.4514 4.46338 16.9666 4.13307 17.4808 4.25909C20.6447 5.03459 23 7.98255 23 11.5037C23 15.0249 20.6447 17.9729 17.4808 18.7484C16.9666 18.8744 16.4514 18.5441 16.33 18.0106C16.2085 17.4771 16.5269 16.9425 17.041 16.8165C19.3611 16.2478 21.087 14.0837 21.087 11.5037C21.087 8.92376 19.3611 6.75963 17.041 6.19095C16.5269 6.06493 16.2085 5.53032 16.33 4.99685Z" fill="#F2F2F2"/>
<path d="M16.8186 7.15697C16.3045 7.03095 15.7892 7.36126 15.6678 7.89473C15.5464 8.4282 15.8647 8.96282 16.3788 9.08883C17.4334 9.34732 18.2174 10.3317 18.2174 11.5037C18.2174 12.6758 17.4334 13.6602 16.3788 13.9187C15.8647 14.0447 15.5464 14.5793 15.6678 15.1128C15.7892 15.6462 16.3045 15.9765 16.8186 15.8505C18.717 15.3852 20.1305 13.617 20.1305 11.5037C20.1305 9.39052 18.717 7.62227 16.8186 7.15697Z" fill="#F2F2F2"/>
</svg>

<svg xmlns="http://www.w3.org/2000/svg" width="24" height="24" viewBox="0 0 24 24"><path fill-rule="evenodd" d="M11.366 4.373c1.267-.938 3.025.001 3.025 1.616v12.023c0 1.614-1.758 2.553-3.025 1.615L6.931 16.34a1.866 1.866 0 00-1.111-.37H3.87C2.285 15.97 1 14.637 1 12.992v-1.985C1 9.364 2.285 8.03 3.87 8.03h1.95c.398 0 .787-.13 1.111-.37l4.435-3.287zm1.112 1.616L8.043 9.275a3.732 3.732 0 01-2.223.74H3.87c-.529 0-.957.444-.957.992v1.986c0 .548.428.992.957.992h1.95c.797 0 1.574.259 2.223.74l4.435 3.287V5.989z"/><path d="M16.33 4.997c.121-.534.637-.864 1.15-.738 3.165.776 5.52 3.724 5.52 7.245 0 3.52-2.355 6.469-5.52 7.244-.513.126-1.029-.204-1.15-.737-.121-.534.197-1.069.711-1.194 2.32-.57 4.046-2.733 4.046-5.313 0-2.58-1.726-4.744-4.046-5.313-.514-.126-.832-.66-.711-1.194z"/><path d="M16.819 7.157c-.514-.126-1.03.204-1.151.738-.122.533.197 1.068.71 1.194 1.055.258 1.84 1.243 1.84 2.415s-.785 2.156-1.84 2.415c-.513.126-.832.66-.71 1.194.121.533.637.864 1.15.738 1.899-.466 3.313-2.234 3.313-4.347 0-2.113-1.414-3.882-3.312-4.347z"/></svg>
